build/images/icon-vk.svg

<svg width="23" height="12" viewBox="0 0 23 12" fill="none" xmlns="http://www.w3.org/2000/svg">
<path d="M22.795 10.7032C22.7332 10.6086 22.3508 9.84878 20.5106 8.28709C18.5842 6.65178 18.843 6.91732 21.1633 4.0897C22.5765 2.36763 23.1415 1.31598 22.9646 0.866405C22.7964 0.437859 21.757 0.550911 21.757 0.550911L18.301 0.569315C18.301 0.569315 18.0451 0.537766 17.8539 0.641616C17.6685 0.744151 17.5492 0.980772 17.5492 0.980772C17.5492 0.980772 17.0014 2.31373 16.2711 3.44688C14.7315 5.83806 14.1147 5.96426 13.8632 5.81572C13.278 5.46999 13.4247 4.42491 13.4247 3.6835C13.4247 1.36594 13.8085 0.399737 12.6757 0.149971C12.299 0.0671538 12.023 0.0119424 11.0613 0.00274048C9.82779 -0.00909055 8.78265 0.00668415 8.1918 0.27091C7.79789 0.447061 7.49456 0.840114 7.68001 0.862462C7.90859 0.890068 8.42613 0.989974 8.70071 1.33176C9.0558 1.77214 9.04286 2.76331 9.04286 2.76331C9.04286 2.76331 9.247 5.49102 8.56701 5.83018C8.09979 6.06285 7.46006 5.5883 6.08714 3.41796C5.38415 2.30716 4.85224 1.07805 4.85224 1.07805C4.85224 1.07805 4.75017 0.849316 4.56759 0.727062C4.3462 0.578517 4.03568 0.531193 4.03568 0.531193L0.749314 0.549597C0.749314 0.549597 0.256215 0.562743 0.0750764 0.758612C-0.0859354 0.933448 0.062138 1.29364 0.062138 1.29364C0.062138 1.29364 2.63545 6.79769 5.54804 9.57272C8.22055 12.1164 11.2539 11.9494 11.2539 11.9494H12.6282C12.6282 11.9494 13.0437 11.9074 13.255 11.6984C13.4506 11.5064 13.4434 11.1463 13.4434 11.1463C13.4434 11.1463 13.4161 9.45967 14.2729 9.21122C15.1167 8.96671 16.2007 10.8413 17.3493 11.563C18.2177 12.1085 18.8775 11.9889 18.8775 11.9889L21.9497 11.9494C21.9497 11.9494 23.5569 11.8587 22.795 10.7032Z" fill="white"/>
</svg>

<svg width="23" height="12" fill="none" xmlns="http://www.w3.org/2000/svg"><path d="M22.795 10.703c-.062-.094-.444-.854-2.284-2.416-1.927-1.635-1.668-1.37.652-4.197 1.413-1.722 1.979-2.774 1.802-3.224-.169-.428-1.208-.315-1.208-.315l-3.456.018s-.256-.031-.447.073c-.185.102-.305.339-.305.339s-.548 1.333-1.278 2.466c-1.54 2.391-2.156 2.517-2.408 2.369-.585-.346-.438-1.391-.438-2.132 0-2.318.383-3.284-.75-3.534-.376-.083-.652-.138-1.614-.147C9.828-.01 8.783.007 8.191.27c-.393.176-.696.57-.511.591.229.028.746.128 1.02.47.356.44.343 1.431.343 1.431s.204 2.728-.476 3.067c-.467.233-1.107-.242-2.48-2.412-.703-1.11-1.235-2.34-1.235-2.34S4.75.85 4.568.728A1.518 1.518 0 004.036.53L.749.55S.256.563.075.759c-.16.174-.013.535-.013.535s2.573 5.504 5.486 8.279c2.673 2.543 5.706 2.376 5.706 2.376h1.374s.416-.042.627-.25c.196-.193.188-.553.188-.553s-.027-1.686.83-1.935c.844-.244 1.928 1.63 3.076 2.352.869.545 1.529.426 1.529.426l3.072-.04s1.607-.09.845-1.246z" fill="#fff"/></svg>
